public/assets/images/others/star-02.svg

<svg width="90" height="17" viewBox="0 0 90 17" fill="none" xmlns="http://www.w3.org/2000/svg">
<g clip-path="url(#clip0_309_3671)">
<path d="M16.875 0H0V17H16.875V0Z" fill="#615EFC"/>
<path d="M35.1562 0H18.2812V17H35.1562V0Z" fill="#615EFC"/>
<path d="M53.4375 0H36.5625V17H53.4375V0Z" fill="#615EFC"/>
<path d="M71.7188 0H54.8438V17H71.7188V0Z" fill="#615EFC"/>
<path d="M90 0H81.5625V17H90V0Z" fill="#DCDCE6"/>
<path d="M81.5625 0H73.125V17H81.5625V0Z" fill="#615EFC"/>
<path d="M8.43652 11.4577L11.0029 10.8025L12.0752 14.1316L8.43652 11.4577ZM14.3428 7.15456H9.82519L8.43652 2.86914L7.04785 7.15456H2.53027L6.18652 9.81081L4.79785 14.0962L8.4541 11.44L10.7041 9.81081L14.3428 7.15456Z" fill="white"/>
<path d="M26.7178 11.4577L29.2842 10.8025L30.3564 14.1316L26.7178 11.4577ZM32.624 7.15456H28.1064L26.7178 2.86914L25.3291 7.15456H20.8115L24.4678 9.81081L23.0791 14.0962L26.7354 11.44L28.9854 9.81081L32.624 7.15456Z" fill="white"/>
<path d="M44.999 11.4577L47.5654 10.8025L48.6377 14.1316L44.999 11.4577ZM50.9053 7.15456H46.3877L44.999 2.86914L43.6104 7.15456H39.0928L42.749 9.81081L41.3604 14.0962L45.0166 11.44L47.2666 9.81081L50.9053 7.15456Z" fill="white"/>
<path d="M63.2803 11.4577L65.8467 10.8025L66.9189 14.1316L63.2803 11.4577ZM69.1865 7.15456H64.6689L63.2803 2.86914L61.8916 7.15456H57.374L61.0303 9.81081L59.6416 14.0962L63.2979 11.44L65.5479 9.81081L69.1865 7.15456Z" fill="white"/>
<path d="M81.5615 11.4577L84.1279 10.8025L85.2002 14.1316L81.5615 11.4577ZM87.4678 7.15456H82.9502L81.5615 2.86914L80.1729 7.15456H75.6553L79.3115 9.81081L77.9229 14.0962L81.5791 11.44L83.8291 9.81081L87.4678 7.15456Z" fill="white"/>
</g>
<defs>
<clipPath id="clip0_309_3671">
<rect width="90" height="17" fill="white"/>
</clipPath>
</defs>
</svg>

<svg xmlns="http://www.w3.org/2000/svg" width="90" height="17" fill="none" viewBox="0 0 90 17"><g clip-path="url(#a)"><path fill="#615efc" d="M16.875 0H0v17h16.875zm18.281 0H18.281v17h16.875zm18.282 0H36.561v17h16.876zm18.281 0H54.844v17h16.875z"/><path fill="#dcdce6" d="M90 0h-8.437v17H90z"/><path fill="#615efc" d="M81.563 0h-8.438v17h8.438z"/><path fill="#fff" d="m8.437 11.458 2.566-.655 1.072 3.329zm5.906-4.303H9.825L8.437 2.869l-1.39 4.286H2.53L6.187 9.81l-1.39 4.285 3.657-2.656 2.25-1.63zm12.375 4.303 2.566-.655 1.072 3.329zm5.906-4.303h-4.518l-1.388-4.286-1.389 4.286h-4.518l3.657 2.656-1.389 4.285 3.656-2.656 2.25-1.63zm12.375 4.303 2.566-.655 1.073 3.329zm5.906-4.303h-4.517l-1.389-4.286-1.389 4.286h-4.517l3.656 2.656-1.389 4.285 3.657-2.656 2.25-1.63zm12.375 4.303 2.567-.655 1.072 3.329zm5.906-4.303H64.67l-1.39-4.286-1.388 4.286h-4.518L61.03 9.81l-1.388 4.285 3.656-2.656 2.25-1.63zm12.376 4.303 2.566-.655 1.072 3.329zm5.906-4.303H82.95l-1.389-4.286-1.388 4.286h-4.518l3.656 2.656-1.388 4.285 3.656-2.656 2.25-1.63z"/></g><defs><clipPath id="a"><path fill="#fff" d="M0 0h90v17H0z"/></clipPath></defs></svg>
